docs/src/images/spectrum.svg

<svg width="126" height="20" viewBox="0 0 126 20" xmlns="http://www.w3.org/2000/svg">
<g fill="white">
<path d="M0 1.08258C0 0.512582 0.461969 0.0503235 1.03161 0.0503235H1.93427C9.41218 0.0503235 15.4742 6.11613 15.4742 13.5987V14.5019C15.4742 15.0723 15.0122 15.5342 14.4426 15.5342H8.76871C8.19906 15.5342 7.73709 15.0723 7.73709 14.5019V13.5987C7.73709 10.3919 5.13904 7.79226 1.93427 7.79226H1.03161C0.461969 7.79226 0 7.33032 0 6.76V1.08258H0Z" />
<path d="M23.17 12.2594C23.2629 13.5368 24.4235 15.8826 28.0444 15.8826C31.1315 15.8826 32.6402 13.9548 32.6402 11.9806C32.6402 10.2852 31.4797 8.84516 29.0889 8.35742L27.557 8.05548C27.0463 7.96258 26.6517 7.68387 26.6517 7.19613C26.6517 6.59226 27.232 6.19742 27.9051 6.19742C28.9729 6.19742 29.4603 6.84774 29.5531 7.61419L32.4778 7.08C32.3617 5.7329 31.2011 3.64258 27.8587 3.64258C25.2823 3.64258 23.4254 5.36129 23.4254 7.47484C23.4254 9.10064 24.4002 10.4942 26.8606 11.0284L28.1837 11.3303C29.0425 11.5161 29.321 11.8645 29.321 12.2826C29.321 12.7935 28.88 13.2813 27.9748 13.2813C26.7678 13.2813 26.2107 12.5148 26.1643 11.7252L23.17 12.2594Z" />
<path d="M38.4621 19.9471V14.6284C38.9959 15.2787 40.1101 15.7897 41.5956 15.7897C44.822 15.7897 47.0967 13.2581 47.0967 9.72773C47.0967 6.26709 45.0773 3.71225 41.7349 3.71225C40.0869 3.71225 38.8335 4.43225 38.346 5.17548V3.99096H34.934V19.9471H38.4621ZM43.6382 9.75096C43.6382 11.6787 42.408 12.631 41.0153 12.631C39.6458 12.631 38.4157 11.6555 38.4157 9.75096C38.4157 7.82322 39.6458 6.89418 41.0153 6.89418C42.408 6.89418 43.6382 7.82322 43.6382 9.75096Z" />
<path d="M52.0423 8.38064C52.112 7.52129 52.8547 6.42967 54.3402 6.42967C56.0115 6.42967 56.6149 7.49806 56.6614 8.38064H52.0423ZM56.9167 11.3768C56.5917 12.2826 55.8722 12.8864 54.5956 12.8864C53.2261 12.8864 52.0423 11.9574 51.9727 10.6568H60.0038C60.027 10.5871 60.0734 10.0529 60.0734 9.56516C60.0734 5.84903 57.8684 3.64258 54.2938 3.64258C51.2996 3.64258 48.5374 6.01161 48.5374 9.72774C48.5374 13.6064 51.3692 15.8826 54.5491 15.8826C57.4738 15.8826 59.3075 14.2103 59.8645 12.2129L56.9167 11.3768Z" />
<path d="M67.6542 6.89419C69.0236 6.89419 69.72 7.73032 69.9753 8.6129L73.132 7.66064C72.6214 5.59355 70.7645 3.64258 67.5845 3.64258C64.1957 3.64258 61.5032 6.17419 61.5032 9.77419C61.5032 13.351 64.2653 15.8826 67.7006 15.8826C70.7877 15.8826 72.691 13.8852 73.2017 11.8645L70.0914 10.9123C69.836 11.7716 69.0701 12.631 67.7006 12.631C66.2383 12.631 65.0081 11.609 65.0081 9.77419C65.0081 7.91613 66.1919 6.89419 67.6542 6.89419Z" />
<path d="M79.5741 0.62323H76.4174V2.10968C76.4174 3.17807 75.8371 3.99097 74.6301 3.99097H74.0498V7.08H76.0924V12.0271C76.0924 14.3265 77.5547 15.7432 79.9455 15.7432C81.0596 15.7432 81.6399 15.4877 81.7792 15.4181V12.4916C81.5703 12.5381 81.2221 12.6077 80.8507 12.6077C80.0847 12.6077 79.5741 12.3523 79.5741 11.4V7.08H81.8256V3.99097H79.5741V0.62323Z" />
<path d="M91.5247 3.99098C91.2926 3.9213 90.9444 3.87485 90.5962 3.87485C89.6678 3.87485 88.2055 4.24646 87.602 5.54711V3.99098H84.1899V15.5342H87.718V10.4942C87.718 8.19485 88.9947 7.35872 90.4105 7.35872C90.7587 7.35872 91.1301 7.38194 91.5247 7.47485V3.99098Z" />
<path d="M101.025 15.5342H104.414C104.391 15.3484 104.298 14.5123 104.298 13.4671V3.99097H100.77V10.5639C100.77 11.7252 100.027 12.5381 98.8433 12.5381C97.5899 12.5381 96.9861 11.6555 96.9861 10.5406V3.99097H93.458V11.2839C93.458 13.7458 95.0364 15.7897 97.8449 15.7897C99.0058 15.7897 100.329 15.3716 100.932 14.3729C100.932 14.6748 100.978 15.3252 101.025 15.5342Z" />
<path d="M110.929 15.5342V8.89161C110.929 7.84645 111.602 6.89419 112.833 6.89419C114.109 6.89419 114.69 7.75355 114.69 8.84516V15.5342H118.171V8.86839C118.171 7.84645 118.844 6.89419 120.098 6.89419C121.351 6.89419 121.931 7.75355 121.931 8.84516V15.5342H125.344V8.05548C125.344 4.92 123.254 3.64258 121.073 3.64258C119.517 3.64258 118.403 4.15355 117.498 5.45419C116.918 4.31613 115.734 3.64258 114.086 3.64258C112.833 3.64258 111.347 4.2929 110.767 5.31484V3.99097H107.401V15.5342H110.929Z" />
</g>
</svg>

<svg width="126" height="20" viewBox="0 0 126 20" xmlns="http://www.w3.org/2000/svg"><path d="M0 1.083C0 .513.462.05 1.032.05h.902c7.478 0 13.54 6.066 13.54 13.549v.903c0 .57-.462 1.032-1.031 1.032H8.769c-.57 0-1.032-.462-1.032-1.032v-.903a5.805 5.805 0 0 0-5.803-5.807h-.902C.462 7.792 0 7.33 0 6.76V1.083zM23.17 12.26c.093 1.277 1.253 3.623 4.874 3.623 3.087 0 4.596-1.928 4.596-3.902 0-1.696-1.16-3.136-3.551-3.624l-1.532-.302c-.51-.092-.905-.371-.905-.859 0-.604.58-.999 1.253-.999 1.068 0 1.555.65 1.648 1.417l2.925-.534c-.116-1.347-1.277-3.437-4.62-3.437-2.576 0-4.433 1.718-4.433 3.832 0 1.626.975 3.02 3.436 3.553l1.323.302c.858.186 1.137.534 1.137.953 0 .51-.441.998-1.346.998-1.207 0-1.764-.766-1.81-1.556l-2.995.534zm15.292 7.687v-5.319c.534.65 1.648 1.162 3.134 1.162 3.226 0 5.5-2.532 5.5-6.062 0-3.46-2.019-6.016-5.361-6.016-1.648 0-2.901.72-3.389 1.463V3.991h-3.412v15.956h3.528zm5.176-10.196c0 1.928-1.23 2.88-2.623 2.88-1.37 0-2.6-.976-2.6-2.88 0-1.928 1.23-2.857 2.6-2.857 1.393 0 2.623.93 2.623 2.857zm8.404-1.371c.07-.859.813-1.95 2.298-1.95 1.671 0 2.275 1.068 2.321 1.95h-4.619zm4.875 2.997c-.325.906-1.045 1.51-2.321 1.51-1.37 0-2.554-.93-2.623-2.23h8.03c.024-.07.07-.604.07-1.092 0-3.716-2.205-5.922-5.78-5.922-2.993 0-5.756 2.369-5.756 6.085 0 3.878 2.832 6.155 6.012 6.155 2.925 0 4.758-1.673 5.316-3.67l-2.948-.836zm10.737-4.483c1.37 0 2.066.836 2.321 1.719l3.157-.952c-.51-2.067-2.368-4.018-5.547-4.018-3.39 0-6.082 2.531-6.082 6.131 0 3.577 2.762 6.109 6.198 6.109 3.087 0 4.99-1.998 5.5-4.018l-3.11-.953c-.255.86-1.02 1.719-2.39 1.719-1.463 0-2.693-1.022-2.693-2.857 0-1.858 1.184-2.88 2.646-2.88zM79.574.623h-3.157V2.11c0 1.068-.58 1.881-1.787 1.881h-.58V7.08h2.042v4.947c0 2.3 1.463 3.716 3.853 3.716 1.115 0 1.695-.255 1.834-.325v-2.926a4.346 4.346 0 0 1-.928.116c-.766 0-1.277-.256-1.277-1.208V7.08h2.252V3.991h-2.252V.623zm11.951 3.368a3.484 3.484 0 0 0-.929-.116c-.928 0-2.39.371-2.994 1.672V3.991H84.19v11.543h3.528v-5.04c0-2.3 1.277-3.135 2.692-3.135.349 0 .72.023 1.115.116V3.99zm9.5 11.543h3.389a18.172 18.172 0 0 1-.116-2.067V3.991h-3.528v6.573c0 1.161-.743 1.974-1.927 1.974-1.253 0-1.857-.883-1.857-1.997V3.99h-3.528v7.293c0 2.462 1.578 4.506 4.387 4.506 1.16 0 2.484-.418 3.087-1.417 0 .302.046.952.093 1.161zm9.904 0V8.892c0-1.046.673-1.998 1.904-1.998 1.276 0 1.857.86 1.857 1.951v6.69h3.481V8.867c0-1.022.673-1.974 1.927-1.974 1.253 0 1.833.86 1.833 1.951v6.69h3.413v-7.48c0-3.135-2.09-4.412-4.271-4.412-1.556 0-2.67.51-3.575 1.811-.58-1.138-1.764-1.811-3.412-1.811-1.253 0-2.739.65-3.319 1.672V3.99h-3.366v11.543h3.528z" fill="#fff"/></svg>
